**harm	**harte	**timestamp	**phrase	**leadinstrument	**kern
*M4/4	*M4/4	*	*	*	*
*A:	*A:	*	*	*	*A:
=1	=1	=1	=1	=1	=1
*>A_intro	*>A_intro	*>A_intro	*>A_intro	*>A_intro	*>A_intro
1r	N	0	newline	.	1r
=2	=2	=2	=2	=2	=2
1r	N	1.893	.	.	1r
=3	=3	=3	=3	=3	=3
1r	N	3.786	.	.	1r
=4	=4	=4	=4	=4	=4
1r	N	5.679	.	.	1r
=5	=5	=5	=5	=5	=5
*>B_verse	*>B_verse	*>B_verse	*>B_verse	*>B_verse	*>B_verse
1I	A:maj	7.572	newline	voice	1A 1cc# 1ee
=6	=6	=6	=6	=6	=6
1r	N	9.409	.	voice	1r
=7	=7	=7	=7	=7	=7
2.I	A:maj	11.247	.	voice	2A 2cc# 2ee
4IV	D:maj	12.625	.	voice	4D 4f# 4a
=8	=8	=8	=8	=8	=8
1I	A:maj	13.084	.	voice	1A 1cc# 1ee
=9	=9	=9	=9	=9	=9
1I	A:maj	14.922	newline	voice	1A 1cc# 1ee
=10	=10	=10	=10	=10	=10
1r	N	16.741	.	voice	1r
=11	=11	=11	=11	=11	=11
2.I	A:maj	18.56	.	voice	2A 2cc# 2ee
4IV	D:maj	19.924	.	voice	4D 4f# 4a
=12	=12	=12	=12	=12	=12
1I	A:maj	20.379	.	voice	1A 1cc# 1ee
=13	=13	=13	=13	=13	=13
1I	A:maj	22.198	newline	voice	1A 1cc# 1ee
=14	=14	=14	=14	=14	=14
1r	N	24.025	.	voice	1r
=15	=15	=15	=15	=15	=15
2.I	A:maj	25.853	.	voice	2A 2cc# 2ee
4IV	D:maj	27.223	.	voice	4D 4f# 4a
=16	=16	=16	=16	=16	=16
1I	A:maj	27.68	.	voice	1A 1cc# 1ee
=17	=17	=17	=17	=17	=17
1I	A:maj	29.507	newline	voice	1A 1cc# 1ee
=18	=18	=18	=18	=18	=18
1r	N	31.353	.	voice	1r
=19	=19	=19	=19	=19	=19
1IV	D:maj	33.199	.	voice	1D 1f# 1a
=20	=20	=20	=20	=20	=20
1V	E:maj	35.045	.	voice	1E 1g# 1b
=21	=21	=21	=21	=21	=21
1V	E:maj	36.89	.	voice	1E 1g# 1b
=22	=22	=22	=22	=22	=22
1V	E:maj	38.736	.	voice	1E 1g# 1b
=23	=23	=23	=23	=23	=23
1V	E:maj	40.582	.	voice	1E 1g# 1b
=24	=24	=24	=24	=24	=24
*>C_chorus	*>C_chorus	*>C_chorus	*>C_chorus	*>C_chorus	*>C_chorus
2I	A:maj	42.428	newline	.	2A 2cc# 2ee
4-VII	G:maj	43.35	.	.	4G 4b 4dd
4I	A:maj	43.811	.	.	4A 4cc# 4ee
=25	=25	=25	=25	=25	=25
2I	A:maj	44.272	.	.	2A 2cc# 2ee
4-VII	G:maj	45.194	.	.	4G 4b 4dd
4I	A:maj	45.655	.	.	4A 4cc# 4ee
=26	=26	=26	=26	=26	=26
2I	A:maj	46.117	.	.	2A 2cc# 2ee
4-VII	G:maj	47.039	.	.	4G 4b 4dd
4I	A:maj	47.5	.	.	4A 4cc# 4ee
=27	=27	=27	=27	=27	=27
2I	A:maj	47.961	.	.	2A 2cc# 2ee
4-VII	G:maj	48.883	.	.	4G 4b 4dd
4I	A:maj	49.344	.	.	4A 4cc# 4ee
=28	=28	=28	=28	=28	=28
2IV	D:maj	49.806	newline	.	2D 2f# 2a
4-III	C:maj	50.73	.	.	4C 4e 4g
4IV	D:maj	51.192	.	.	4D 4f# 4a
=29	=29	=29	=29	=29	=29
2IV	D:maj	51.655	.	.	2D 2f# 2a
4-III	C:maj	52.579	.	.	4C 4e 4g
4IV	D:maj	53.041	.	.	4D 4f# 4a
=30	=30	=30	=30	=30	=30
2IV	D:maj	53.504	.	.	2D 2f# 2a
4-III	C:maj	54.428	.	.	4C 4e 4g
4IV	D:maj	54.89	.	.	4D 4f# 4a
=31	=31	=31	=31	=31	=31
2IV	D:maj	55.353	.	.	2D 2f# 2a
4-III	C:maj	56.277	.	.	4C 4e 4g
4IV	D:maj	56.739	.	.	4D 4f# 4a
=32	=32	=32	=32	=32	=32
1V	E:maj	57.202	newline	voice	1E 1g# 1b
=33	=33	=33	=33	=33	=33
1V	E:maj	59.063	.	voice	1E 1g# 1b
=34	=34	=34	=34	=34	=34
1V	E:maj	60.924	.	voice	1E 1g# 1b
=35	=35	=35	=35	=35	=35
1V	E:maj	62.786	.	voice	1E 1g# 1b
=36	=36	=36	=36	=36	=36
*>A2_interlude	*>A2_interlude	*>A2_interlude	*>A2_interlude	*>A2_interlude	*>A2_interlude
1r	N	64.647	newline	voice	1r
=37	=37	=37	=37	=37	=37
1r	N	66.483	.	voice	1r
=38	=38	=38	=38	=38	=38
*>B_verse	*>B_verse	*>B_verse	*>B_verse	*>B_verse	*>B_verse
1I	A:maj	68.319	newline	voice	1A 1cc# 1ee
=39	=39	=39	=39	=39	=39
1r	N	70.136	.	voice	1r
=40	=40	=40	=40	=40	=40
2.I	A:maj	71.952	.	voice	2A 2cc# 2ee
4IV	D:maj	73.314	.	voice	4D 4f# 4a
=41	=41	=41	=41	=41	=41
1I	A:maj	73.768	.	voice	1A 1cc# 1ee
=42	=42	=42	=42	=42	=42
1I	A:maj	75.584	newline	voice	1A 1cc# 1ee
=43	=43	=43	=43	=43	=43
1r	N	77.403	.	voice	1r
=44	=44	=44	=44	=44	=44
2.I	A:maj	79.221	.	voice	2A 2cc# 2ee
4IV	D:maj	80.585	.	voice	4D 4f# 4a
=45	=45	=45	=45	=45	=45
1I	A:maj	81.039	.	voice	1A 1cc# 1ee
=46	=46	=46	=46	=46	=46
1I	A:maj	82.858	newline	voice	1A 1cc# 1ee
=47	=47	=47	=47	=47	=47
1r	N	84.682	.	voice	1r
=48	=48	=48	=48	=48	=48
2.I	A:maj	86.506	.	voice	2A 2cc# 2ee
4IV	D:maj	87.874	.	voice	4D 4f# 4a
=49	=49	=49	=49	=49	=49
1I	A:maj	88.33	.	voice	1A 1cc# 1ee
=50	=50	=50	=50	=50	=50
1I	A:maj	90.154	newline	voice	1A 1cc# 1ee
=51	=51	=51	=51	=51	=51
1r	N	91.991	.	voice	1r
=52	=52	=52	=52	=52	=52
1IV	D:maj	93.829	.	voice	1D 1f# 1a
=53	=53	=53	=53	=53	=53
1V	E:maj	95.666	.	voice	1E 1g# 1b
=54	=54	=54	=54	=54	=54
1V	E:maj	97.503	.	voice	1E 1g# 1b
=55	=55	=55	=55	=55	=55
1V	E:maj	99.34	.	voice	1E 1g# 1b
=56	=56	=56	=56	=56	=56
1V	E:maj	101.177	.	voice	1E 1g# 1b
=57	=57	=57	=57	=57	=57
*>C_chorus	*>C_chorus	*>C_chorus	*>C_chorus	*>C_chorus	*>C_chorus
2I	A:maj	103.014	newline	.	2A 2cc# 2ee
4-VII	G:maj	103.948	.	.	4G 4b 4dd
4I	A:maj	104.415	.	.	4A 4cc# 4ee
=58	=58	=58	=58	=58	=58
2I	A:maj	104.882	.	.	2A 2cc# 2ee
4-VII	G:maj	105.815	.	.	4G 4b 4dd
4I	A:maj	106.282	.	.	4A 4cc# 4ee
=59	=59	=59	=59	=59	=59
2I	A:maj	106.749	.	.	2A 2cc# 2ee
4-VII	G:maj	107.683	.	.	4G 4b 4dd
4I	A:maj	108.149	.	.	4A 4cc# 4ee
=60	=60	=60	=60	=60	=60
2I	A:maj	108.616	.	.	2A 2cc# 2ee
4-VII	G:maj	109.55	.	.	4G 4b 4dd
4I	A:maj	110.017	.	.	4A 4cc# 4ee
=61	=61	=61	=61	=61	=61
2IV	D:maj	110.483	newline	.	2D 2f# 2a
4-III	C:maj	111.4	.	.	4C 4e 4g
4IV	D:maj	111.858	.	.	4D 4f# 4a
=62	=62	=62	=62	=62	=62
2IV	D:maj	112.316	.	.	2D 2f# 2a
4-III	C:maj	113.232	.	.	4C 4e 4g
4IV	D:maj	113.69	.	.	4D 4f# 4a
=63	=63	=63	=63	=63	=63
2IV	D:maj	114.148	.	.	2D 2f# 2a
4-III	C:maj	115.064	.	.	4C 4e 4g
4IV	D:maj	115.522	.	.	4D 4f# 4a
=64	=64	=64	=64	=64	=64
2IV	D:maj	115.98	.	.	2D 2f# 2a
4-III	C:maj	116.896	.	.	4C 4e 4g
4IV	D:maj	117.354	.	.	4D 4f# 4a
=65	=65	=65	=65	=65	=65
1V	E:maj	117.812	newline	.	1E 1g# 1b
=66	=66	=66	=66	=66	=66
1V	E:maj	119.681	.	.	1E 1g# 1b
=67	=67	=67	=67	=67	=67
1V	E:maj	121.551	.	.	1E 1g# 1b
=68	=68	=68	=68	=68	=68
1V	E:maj	123.42	.	.	1E 1g# 1b
=69	=69	=69	=69	=69	=69
*>D_bridge	*>D_bridge	*>D_bridge	*>D_bridge	*>D_bridge	*>D_bridge
1I	A:maj	125.289	newline	.	1A 1cc# 1ee
=70	=70	=70	=70	=70	=70
1IV	D:1	127.139	.	.	1D 1f# 1a
=71	=71	=71	=71	=71	=71
1r	N	128.989	.	.	1r
=72	=72	=72	=72	=72	=72
1r	N	130.839	.	.	1r
=73	=73	=73	=73	=73	=73
1r	N	132.69	newline	.	1r
=74	=74	=74	=74	=74	=74
1r	N	134.536	.	.	1r
=75	=75	=75	=75	=75	=75
1r	N	136.383	.	.	1r
=76	=76	=76	=76	=76	=76
1r	N	138.23	.	.	1r
=77	=77	=77	=77	=77	=77
1r	N	140.077	newline	.	1r
=78	=78	=78	=78	=78	=78
1r	N	141.915	.	.	1r
=79	=79	=79	=79	=79	=79
1V	E:maj	143.753	.	.	1E 1g# 1b
=80	=80	=80	=80	=80	=80
1V	E:maj	145.591	.	.	1E 1g# 1b
=81	=81	=81	=81	=81	=81
1V	E:maj	147.429	.	.	1E 1g# 1b
=82	=82	=82	=82	=82	=82
1V	E:maj	149.267	.	.	1E 1g# 1b
=83	=83	=83	=83	=83	=83
*>C_chorus	*>C_chorus	*>C_chorus	*>C_chorus	*>C_chorus	*>C_chorus
2I	A:maj	151.105	newline	.	2A 2cc# 2ee
4-VII	G:maj	152.038	.	.	4G 4b 4dd
4I	A:maj	152.504	.	.	4A 4cc# 4ee
=84	=84	=84	=84	=84	=84
2I	A:maj	152.97	.	.	2A 2cc# 2ee
4-VII	G:maj	153.903	.	.	4G 4b 4dd
4I	A:maj	154.369	.	.	4A 4cc# 4ee
=85	=85	=85	=85	=85	=85
2I	A:maj	154.835	.	.	2A 2cc# 2ee
4-VII	G:maj	155.768	.	.	4G 4b 4dd
4I	A:maj	156.234	.	.	4A 4cc# 4ee
=86	=86	=86	=86	=86	=86
2I	A:maj	156.701	.	.	2A 2cc# 2ee
4-VII	G:maj	157.633	.	.	4G 4b 4dd
4I	A:maj	158.1	.	.	4A 4cc# 4ee
=87	=87	=87	=87	=87	=87
*>_fadeout	*>_fadeout	*>_fadeout	*>_fadeout	*>_fadeout	*>_fadeout
2IV	D:maj	158.566	newline	.	2D 2f# 2a
4-III	C:maj	159.484	.	.	4C 4e 4g
4IV	D:maj	159.943	.	.	4D 4f# 4a
=88	=88	=88	=88	=88	=88
2IV	D:maj	160.402	.	.	2D 2f# 2a
4-III	C:maj	161.32	.	.	4C 4e 4g
4IV	D:maj	161.779	.	.	4D 4f# 4a
=89	=89	=89	=89	=89	=89
2IV	D:maj	162.238	.	.	2D 2f# 2a
4-III	C:maj	163.156	.	.	4C 4e 4g
4IV	D:maj	163.615	.	.	4D 4f# 4a
=90	=90	=90	=90	=90	=90
2IV	D:maj	164.074	.	.	2D 2f# 2a
4-III	C:maj	164.992	.	.	4C 4e 4g
4IV	D:maj	165.451	.	.	4D 4f# 4a
=91	=91	=91	=91	=91	=91
1V	E:maj	165.91	newline	voice	1E 1g# 1b
=92	=92	=92	=92	=92	=92
1V	E:maj	167.125	.	voice	1E 1g# 1b
=93	=93	=93	=93	=93	=93
1V	E:maj	168.34	.	voice	1E 1g# 1b
=94	=94	=94	=94	=94	=94
1V	E:maj	169.555	.	voice	1E 1g# 1b
1r;	N	170.769	.	r	1r;
1r;	N	174.818	.	r	1r;
*-	*-	*-	*-	*-	*-
!!!OTL: Mony Mony
!!!COC: Tommy James
!!!BillboardChartDate: 1968/05/25
!!!BillboardPeak: 3
!!!BillboardWeeksOnChart: 17
!!!SampleTargetRank: 13
!!!SampleActualRank: 12
!!!SampleID#: 0928
!!!RDF**harmony: **recip + pitch class of root + harmonic quality
!!!RDF**harte: Chris Harte's syntax, used by MIREX
!!!RDF**phrase: newline = linebreak in original McGill transcription
!!!RDF**timestamp: McGill audio timestamp in seconds
!!!RDF**leadinstrument: original McGill primary instrumentation annotation
!!!RDT: 2017/01/12/
!!!ENC: Nathaniel Condit-Schultz
!!!EST: Awating manual error checking and editing.
